X:1
T:Title
%%score { ( 1 4 ) | ( 2 3 ) }
L:1/8
M:4/4
K:Eb
V:1 treble nm="Grand Piano"
V:4 treble 
V:2 bass 
V:3 bass 
V:1
 z4 z2[Q:1/4=94] E2 | G2 G[FA] [GB]2 [GB]2 | c2 cc [GB]2 GF | E2 EE EEDE | [EG]4 [DF]2 [EG][FA] | %5
 [GB]2 [GB]2 [GB][GB][_G=A][=GB] |[M:7/8] c2 c2 e3 |[M:1/4] dc |[M:4/4] B2 Bc BGE[EG] | %9
[M:3/4] [DF]4 E2 |[M:1/4] G2 |[M:4/4] [GB]2 [GB][GB] [Ac] [Ae]3 |[M:3/4] B6 |[M:1/4] [GB]2 | %14
[M:4/4] c2 cc [GB] G3 | F6 z2 |[M:3/4] GG GG [FA]2 |[M:1/4] [FA][FA] | %18
[M:9/8] [GB][GB][Ge] [Bd] c2- c e2 |[M:4/4] B2 Bc G [DF]3 |[M:3/4] E6 |] %21
V:2
 z4 z2 [E,G,]2 | [E,B,E]2 [E,B,E][E,B,] [E,B,]2 [E,E]2 | %2
 [A,EA]2 [A,EA][A,EA][K:bass] [E,E]2 [E,B,E][E,A,E] | %3
 [E,G,]2 [F,A,][F,A,] [G,B,][E,G,][F,A,B,][E,G,B,] | [B,,B,]4 [B,,B,]2 [E,B,][E,B,] | %5
 [E,B,]2 [E,E]2 [E,E][E,E][E,E][E,E] |[M:7/8][K:treble] [A,EA]2 [A,EA]2 [A,CA]3 | %7
[M:1/4] [=A,_G]-[A,EG] |[M:4/4] [B,EG]2 [B,EG][B,EA] [B,EG][K:bass][B,E][B,,G,][B,,B,] | %9
[M:3/4] [B,,A,]4 [E,G,]2 |[M:1/4] [E,B,E]2 |[M:4/4] [E,E]2 [E,E][E,E] [A,E] [A,C]3 | %12
[M:3/4] [E,E]2 [F,D]2 [G,E]2 |[M:1/4] [E,E]2 | %14
[M:4/4][K:treble] [A,EA]2 [A,EA][A,EA][K:bass] [E,E] [E,B,E]3 | [B,D]2 B,C B,A,[G,B,][F,B,D] | %16
[M:3/4] [E,B,E][E,B,E] [E,B,E][E,B,E] [D,B,]2 |[M:1/4] [B,,B,][B,,B,] | %18
[M:9/8] [E,B,][E,B,][E,B,][K:treble] [G,E] [A,EA]2- [A,EA] [=A,C_G]2 | %19
[M:4/4] [B,EG]2 [B,EG][B,EA][K:bass] [B,E] [B,,A,]3 |[M:3/4] G,2 z2 z2 |] %21
V:3
 x8 | x8 | x4[K:bass] x4 | x8 | x8 | x8 |[M:7/8][K:treble] x7 |[M:1/4] C z |[M:4/4] x5[K:bass] x3 | %9
[M:3/4] x6 |[M:1/4] x2 |[M:4/4] x8 |[M:3/4] x6 |[M:1/4] x2 |[M:4/4][K:treble] x4[K:bass] x4 | x8 | %16
[M:3/4] x6 |[M:1/4] x2 |[M:9/8] x3[K:treble] x6 |[M:4/4] x4[K:bass] x4 | %20
[M:3/4] E,2- [E,-A,]2 [E,G,]2 |] %21
V:4
 x8 | x8 | x8 | x8 | x8 | x8 |[M:7/8] x7 |[M:1/4] x2 |[M:4/4] x8 |[M:3/4] x6 |[M:1/4] x2 | %11
[M:4/4] x8 |[M:3/4] G2 A2 G2 |[M:1/4] x2 |[M:4/4] x8 | z2 D2 D2 EF |[M:3/4] x6 |[M:1/4] x2 | %18
[M:9/8] x9 |[M:4/4] x8 |[M:3/4] z2 C2 B,2 |] %21

